X:249
T:Fly. VWMLa.249, The
%%VWML:Anon2-3049-p165-0
F:http://www.vwml.org/record/Anon2/3049/p165
S:Anon. MS, late 18thC, Vaughan Williams Mem. Library
O:England;Yorkshire
Z:vmp/efdss.Simon Wilson. Reviewed PJH 2008.
M:2/4
L:1/8
Q:1/4=140
K:G
f|gdBG|c3e|dgdB|cAAf|\
gdBG|c3e|dgdc|BGG:|
|:f|g2(fg)|aAAf|g2(fe)|fddf|\
g2(fg)|afge|dgdc|BGG:|
T:Duke of Clarence's Fancy. VWMLa.250
R:Reel.
S:Anon. MS, late 18thC, Vaughan Williams Mem. Library
O:England;Yorkshire
Z:vmp/efdss.Simon Wilson. Reviewed PJH 2008.
M:2/4
L:1/8
Q:1/4=140
K:G
G2 BG|Bd2g|ec AG|FA DC|\
B,D GD|EG ce|dB AF|G2 G,2:|
ga bg|fa df|ef ge|dg dB|\
cd ec|Bd2g|ec AG|!D.C.!GF ED|]
T:Miss Bells Strathspey. VWMLa.251
R:Strathspey
S:Anon. MS, late 18thC, Vaughan Williams Mem. Library
N:Unnecessary d/c/ lead notes. PJH.
O:England;Yorkshire
Z:vmp/efdss.Simon Wilson. Reviewed PJH 2008....
%d/c/|
M:C
L:1/8
Q:2/4=50
K:Bb
|:BGGG DGGG|BG G/A/B/c/ d2 d/e/d/c/|\
BGGG DG Gc/B/|AF F/G/A/B/ c2 d/c/B/A/:|
B>cdd gddd|B>cdd ga ({ga}b2)|\
B>cdd fccB|AF F/G/A/B/ c2 d/c/B/A/|
B>cdd gddd|B>cdd gfga|\
b<g a<f g<d fc/B/|AF F/G/A/B/ c2 d/c/B/A/|]
